X:1
T:Ecco la Morte viene
T:Giovanni Animuccia
T:Source : Secondo libro delle Laude spirituali a tre et a quattro voci---Roma---A.Gardano---1583. Editor : André Vierendeels (26/11/17). Notes : Original clefs : C1, C2, C4 Editorial accidentals above the staff Music compiled by Francisco Soto de Langa 
T:Ecco la Morte viene
T:©
C:Giovanni Animuccia
Z:©
%%score [ 1 2 3 ]
L:1/8
Q:1/4=95
M:2/2
K:C
V:1 treble nm="Soprano" snm="S"
V:2 treble nm="Alto" snm="A"
V:3 treble-8 nm="Tenor" snm="T"
V:1
 z4 A2 AA | A2 c2 B4 | A4 G2 GG | G2 F2 E4 | E4 F2 FF | E2 D2 E4 | D8 :| %7
w: Ec- co la|Mor- te vie-|ne, che con fa-|ce ta- glien-|te, fa ma- cel|del- la gen-|te.|
w: Co- si vid'|io l'al- trie-|ri, far me- ti-|tor dell' her-|ba, ch'u- na pur|non ne ser-|ba.|
V:2
 z4 F2 FF | F2 A4 G2 | A4 E2 EE |"^#" E2 D2 C4 |"^#" C4 D2 DD | C2 D4 C2 | D8 :| %7
w: Ec- co la|Mor- te vie-|ne, che con fa-|ce ta- glien-|te, fa ma- cel|del- la gen-|te.|
w: De fior ver-|mi- gli'& bian-|chi, qual pre- ci-|so ca- de-|a, qual ca- du-|to lan- gue-|a.|
V:3
 z4 d2 dd | d2 A2 e4 | A4 c2 cc | c2 d2 A4 | A4 D2 DD | A2 _B2 A4 |"^#" D8 :| %7
w: Ec- co la|Mor- te vie-|ne, che con fa-|ce ta- glien-|te, fa ma- cel|del- la gen-|te.|
w: Mor- te fe-|ro- ce'& em-|pia, qual ca- te-|na'o qual mor-|so, puo ri- te-|ner tuo cor-|so.|

